!!!COM: Beethoven
!!!OTL: 24 Variationen uber Venni Amore von V. Righini
!!!Variation: Variation 12 a
**function	**harm	**kern	**kern
*	*	*clefF4	*clefG2
*	*	*k[b-]	*k[b-]
*M2/4	*M2/4	*M2/4	*M2/4
*d:	*d:	*d:	*d:
=201	=201	=201	=201
*	*	*^	*
4T	E:min	[2D	(8FL 8A	(4aa
.	.	.	8dJ	.
4T	D#:dim7/b5	.	8GL 8B-	4cc#
.	.	.	8dJ)	.
=202	=202	=202	=202	=202
4T	E:min/b3	2D]	(8FL 8A	(4.dd)
.	.	.	8dJ	.
4T	G#:dim7	.	8F#L 8A	.
.	.	.	8cJ)	8ee-)
=203	=203	=203	=203	=203
4T	A:maj	[2D	(8GL	(8ee-L
.	.	.	8BJ	8ddJ)
4T	D#:dim7/b3	.	8EL	(8ddL
.	.	.	8B-J)	8cc#J)
=204	=204	=204	=204	=204
2T	E:min	2D]	(8FL	(4cc#
.	.	.	8B-J	.
.	.	.	8AL	8dd)
.	.	.	8FJ)	8r
=205	=205	=205	=205	=205
4T	E:min	4D	(8DL	4ff
.	.	.	8AJ	.
4T	D#:dim7/b5	(4BB	8DL	(4ff
.	.	.	8G#J)	.
=206	=206	=206	=206	=206
4T	.	4BB-)	(8C#L	4.ee)
.	.	.	8GJ	.
4T	B:7	4AA	8C#L	.
.	.	.	8GJ)	8ee
=207	=207	=207	=207	=207
4D	E:min/5	4AA	(8DL	(8ddL
.	.	.	8FJ	8cc#J
4D	F#:hdim7/b3	4BB-	8DL	8ddL
.	.	.	8GJ)	8eeJ)
=208	=208	=208	=208	=208
2D	B:maj	4.AA	(4C#	4a
.	.	.	8A)	4r
*	*	*v	*v	*
.	.	8r	.
*-	*-	*-	*-
!!!EMD: Edited in humdrumR 0.7.0.3 on 2024-01-19
